svg/charges/warhammer/world-eaters-symbol.svg

<?xml version="1.0" encoding="utf-8"?>
<!-- Generator: Adobe Illustrator 22.0.1, SVG Export Plug-In . SVG Version: 6.00 Build 0)  -->
<svg version="1.1" id="Layer_3" xmlns="http://www.w3.org/2000/svg"    xmlns:dc="http://purl.org/dc/elements/1.1/"
   xmlns:cc="http://creativecommons.org/ns#"
   xmlns:rdf="http://www.w3.org/1999/02/22-rdf-syntax-ns#" xmlns:xlink="http://www.w3.org/1999/xlink" x="0px" y="0px"
	 viewBox="0 0 872 872" style="enable-background:new 0 0 872 872;" xml:space="preserve"><metadata
   id="metadata97"><rdf:RDF><cc:Work
       rdf:about=""><dc:format>image/svg+xml</dc:format><dc:type
         rdf:resource="http://purl.org/dc/dcmitype/StillImage" /><dc:title></dc:title><dc:creator><cc:Agent><dc:title>http://bakadesign.dk/warhammer-40-000-icons/</dc:title></cc:Agent></dc:creator></cc:Work></rdf:RDF></metadata>
<g style="fill:#ff0000">
<path d="M796.6,481.4c25.5-10.8,75.4-34.9,75.4-34.9l-74.3-27.6c-1.8-27.5-6.7-54.2-14.3-79.7c18.6-19.2,57.3-63.7,57.3-63.7
	l-80.9,4.1c-11.6-23.1-25.5-44.8-41.5-64.8c9.5-22.3,31.2-84,31.2-84l-77.7,35.7c-19.1-16.5-39.9-31.1-62.1-43.4
	c0.7-25.6-1.4-87.7-1.4-87.7l-59.2,61c-25.7-8.6-52.7-14.5-80.6-17.2C458.6,55.4,432,0,432,0l-29.2,78.7c-27.9,2.2-55,7.6-80.8,15.8
	c-20-19.2-61.8-55.5-61.8-55.5l4,79.4c-27.2,14.1-52.3,31.5-75,51.6c-27.2-10.4-65.9-24-65.9-24l28.6,62.4
	c-17,20.3-31.9,42.4-44.2,66.1c-28.9-0.1-77.7,1.5-77.7,1.5l54.7,53.1C75,358.7,69,389.9,67.1,422.2C40.4,434,0,453.5,0,453.5
	l68.2,25.3c3.1,32.8,10.6,64.3,21.8,94c-19.8,21.4-47.7,53.4-47.7,53.4l70.9-3.6c13.4,23.9,29.4,46.1,47.7,66.3
	c-10.3,27-23.1,63.6-23.1,63.6l60.4-27.7c19.4,16.2,40.6,30.4,63.1,42.4c0.2,29,1.5,69.1,1.5,69.1l46.5-47.9
	c31.6,11.3,65.2,18.4,100.2,20.5C421.4,835.3,439,872,439,872l23.6-63.7c32.4-2.6,63.7-9.5,93.2-20.1c21.4,19.8,55.1,49.2,55.1,49.2
	l-3.7-72.2c19.9-10.8,38.7-23.4,56.1-37.6c24,10,81.6,30.1,81.6,30.1L710.1,682c15.6-18.2,29.5-37.9,41.4-59
	c28.7,0.2,79.2-1.5,79.2-1.5l-54.2-52.6C786.6,541.1,793.4,511.8,796.6,481.4z M605.2,732L566,620l-41.1,97.7c-1.3,3.2-5.9,3-7-0.3
	L500,662l-22.3,59.2c-1.1,2.9-5.4,2.7-6.1-0.4L458,662l-20.8,54.6c-1,2.5-4.5,2.5-5.5,0L411,662l-13.6,58.8c-0.7,3.1-5,3.3-6.1,0.4
	L369,662l-17.9,55.4c-1.1,3.3-5.7,3.5-7,0.3L303,620l-39.4,112.5C165.1,674.1,99,566.8,99,444c0-80.9,28.7-155.1,76.4-212.9l3.6,1.9
	c0,0,55,144,58,127c2.6-14.7,50.7-137.6,63.8-170.8c1-2.6,4.7-2.3,5.4,0.3c6.2,24.2,24.3,90.8,30.8,78.5c6.7-12.6,25.4-65.3,31.2-82
	c0.6-1.7,3-1.7,3.7,0c7.1,18.9,32.1,84.6,32.1,82c0-1.8,17.3-52.6,31.3-93.5c0.7-2.1,3.7-2.1,4.4,0c14,41,31.3,91.8,31.3,93.5
	c0,2.5,24.5-62,31.9-81.5c0.7-1.9,3.3-1.8,4,0c6,17.1,24.4,69,31.1,81.5c6.5,12.2,24.2-52.8,30.6-77.7c0.8-2.9,4.8-3.2,5.9-0.4
	c13.5,34.2,60.9,155.4,63.5,170c2.8,16,51.5-110.1,57.4-125.5c46,57.4,73.6,130.2,73.6,209.5C769,566.4,703.3,673.5,605.2,732z"/>
</g></svg>

<?xml version="1.0" encoding="UTF-8" standalone="no"?>
<!-- Generator: Adobe Illustrator 22.0.1, SVG Export Plug-In . SVG Version: 6.00 Build 0)  -->

<svg
   xmlns:dc="http://purl.org/dc/elements/1.1/"
   xmlns:cc="http://creativecommons.org/ns#"
   xmlns:rdf="http://www.w3.org/1999/02/22-rdf-syntax-ns#"
   xmlns:svg="http://www.w3.org/2000/svg"
   xmlns="http://www.w3.org/2000/svg"
   xmlns:sodipodi="http://sodipodi.sourceforge.net/DTD/sodipodi-0.dtd"
   xmlns:inkscape="http://www.inkscape.org/namespaces/inkscape"
   version="1.1"
   id="Layer_3"
   x="0px"
   y="0px"
   viewBox="0 0 872 872"
   xml:space="preserve"
   sodipodi:docname="world-eaters-symbol.svg"
   width="872"
   height="872"
   inkscape:version="0.92.3 (2405546, 2018-03-11)"><defs
   id="defs10" /><sodipodi:namedview
   pagecolor="#ffffff"
   bordercolor="#666666"
   borderopacity="1"
   objecttolerance="10"
   gridtolerance="10"
   guidetolerance="10"
   inkscape:pageopacity="0"
   inkscape:pageshadow="2"
   inkscape:window-width="640"
   inkscape:window-height="480"
   id="namedview8"
   showgrid="false"
   inkscape:zoom="0.2706422"
   inkscape:cx="436"
   inkscape:cy="436"
   inkscape:window-x="0"
   inkscape:window-y="0"
   inkscape:window-maximized="0"
   inkscape:current-layer="Layer_3" /><metadata
   id="metadata97"><rdf:RDF><cc:Work
       rdf:about=""><dc:format>image/svg+xml</dc:format><dc:type
         rdf:resource="http://purl.org/dc/dcmitype/StillImage" /><dc:title></dc:title><dc:creator><cc:Agent><dc:title>http://bakadesign.dk/warhammer-40-000-icons/</dc:title></cc:Agent></dc:creator></cc:Work></rdf:RDF></metadata>
<g
   style="fill:#ff0000"
   id="g5">
<path
   d="M 796.6,481.4 C 822.1,470.6 872,446.5 872,446.5 L 797.7,418.9 C 795.9,391.4 791,364.7 783.4,339.2 802,320 840.7,275.5 840.7,275.5 l -80.9,4.1 c -11.6,-23.1 -25.5,-44.8 -41.5,-64.8 9.5,-22.3 31.2,-84 31.2,-84 l -77.7,35.7 C 652.7,150 631.9,135.4 609.7,123.1 610.4,97.5 608.3,35.4 608.3,35.4 l -59.2,61 C 523.4,87.8 496.4,81.9 468.5,79.2 458.6,55.4 432,0 432,0 L 402.8,78.7 C 374.9,80.9 347.8,86.3 322,94.5 302,75.3 260.2,39 260.2,39 l 4,79.4 C 237,132.5 211.9,149.9 189.2,170 162,159.6 123.3,146 123.3,146 l 28.6,62.4 c -17,20.3 -31.9,42.4 -44.2,66.1 C 78.8,274.4 30,276 30,276 l 54.7,53.1 C 75,358.7 69,389.9 67.1,422.2 40.4,434 0,453.5 0,453.5 l 68.2,25.3 c 3.1,32.8 10.6,64.3 21.8,94 -19.8,21.4 -47.7,53.4 -47.7,53.4 l 70.9,-3.6 c 13.4,23.9 29.4,46.1 47.7,66.3 -10.3,27 -23.1,63.6 -23.1,63.6 l 60.4,-27.7 c 19.4,16.2 40.6,30.4 63.1,42.4 0.2,29 1.5,69.1 1.5,69.1 l 46.5,-47.9 c 31.6,11.3 65.2,18.4 100.2,20.5 11.9,26.4 29.5,63.1 29.5,63.1 l 23.6,-63.7 c 32.4,-2.6 63.7,-9.5 93.2,-20.1 21.4,19.8 55.1,49.2 55.1,49.2 l -3.7,-72.2 c 19.9,-10.8 38.7,-23.4 56.1,-37.6 24,10 81.6,30.1 81.6,30.1 L 710.1,682 c 15.6,-18.2 29.5,-37.9 41.4,-59 28.7,0.2 79.2,-1.5 79.2,-1.5 l -54.2,-52.6 c 10.1,-27.8 16.9,-57.1 20.1,-87.5 z M 605.2,732 566,620 524.9,717.7 c -1.3,3.2 -5.9,3 -7,-0.3 L 500,662 477.7,721.2 c -1.1,2.9 -5.4,2.7 -6.1,-0.4 L 458,662 437.2,716.6 c -1,2.5 -4.5,2.5 -5.5,0 L 411,662 397.4,720.8 c -0.7,3.1 -5,3.3 -6.1,0.4 L 369,662 351.1,717.4 c -1.1,3.3 -5.7,3.5 -7,0.3 L 303,620 263.6,732.5 C 165.1,674.1 99,566.8 99,444 99,363.1 127.7,288.9 175.4,231.1 l 3.6,1.9 c 0,0 55,144 58,127 2.6,-14.7 50.7,-137.6 63.8,-170.8 1,-2.6 4.7,-2.3 5.4,0.3 6.2,24.2 24.3,90.8 30.8,78.5 6.7,-12.6 25.4,-65.3 31.2,-82 0.6,-1.7 3,-1.7 3.7,0 7.1,18.9 32.1,84.6 32.1,82 0,-1.8 17.3,-52.6 31.3,-93.5 0.7,-2.1 3.7,-2.1 4.4,0 14,41 31.3,91.8 31.3,93.5 0,2.5 24.5,-62 31.9,-81.5 0.7,-1.9 3.3,-1.8 4,0 6,17.1 24.4,69 31.1,81.5 6.5,12.2 24.2,-52.8 30.6,-77.7 0.8,-2.9 4.8,-3.2 5.9,-0.4 13.5,34.2 60.9,155.4 63.5,170 2.8,16 51.5,-110.1 57.4,-125.5 46,57.4 73.6,130.2 73.6,209.5 0,122.5 -65.7,229.6 -163.8,288.1 z"
   id="path3"
   inkscape:connector-curvature="0" />
</g></svg>
